;Generated with Cura_SteamEngine DEV
M109 S210     ;Heatup to 210C
G21           ;metric values
G90           ;absolute positioning
G28           ;Home
G1 Z15.0 F300 ;move the platform down 15mm
G92 E0        ;zero the extruded length
G1 F200 E5    ;extrude 5mm of feed stock
G92 E0        ;zero the extruded length again

;Layer count: 17
;LAYER:0
M107
G0 F9000 X80.940 Y92.007 Z0.300
;TYPE:SKIRT
G1 F1200 X82.393 Y90.709 E0.05346
G1 X83.793 Y89.490 E0.10440
G1 X85.452 Y88.451 E0.15811
G1 X87.061 Y87.472 E0.20980
G1 X88.871 Y86.679 E0.26402
G1 X90.638 Y85.923 E0.31676
G1 X92.568 Y85.360 E0.37193
G1 X94.460 Y84.822 E0.42590
G1 X96.464 Y84.487 E0.48165
G1 X98.439 Y84.163 E0.53657
G1 X100.482 Y84.050 E0.59272
G1 X102.505 Y83.943 E0.64831
G1 X104.544 Y84.054 E0.70434
G1 X106.565 Y84.163 E0.75988
G1 X108.561 Y84.496 E0.81541
G1 X110.550 Y84.823 E0.87072
G1 X112.461 Y85.379 E0.92533
G1 X114.367 Y85.923 E0.97972
G1 X116.115 Y86.686 E1.03206
G1 X117.949 Y87.472 E1.08681
G1 X119.544 Y88.467 E1.13839
G1 X121.212 Y89.487 E1.19204
G1 X122.615 Y90.736 E1.24359
G1 X124.065 Y92.002 E1.29641
G1 X125.186 Y93.502 E1.34779
G1 X126.366 Y95.050 E1.40120
G1 X127.095 Y96.748 E1.45191
G1 X127.907 Y98.598 E1.50735
G1 X128.177 Y100.510 E1.56033
G1 X128.459 Y102.490 E1.61521
G1 X128.187 Y104.447 E1.66943
G1 X127.907 Y106.381 E1.72305
G1 X127.128 Y108.202 E1.77740
G1 X126.363 Y109.941 E1.82953
G1 X125.193 Y111.513 E1.88330
G1 X124.060 Y112.993 E1.93445
G1 X122.607 Y114.291 E1.98791
G1 X121.207 Y115.510 E2.03885
G1 X119.548 Y116.549 E2.09256
G1 X117.939 Y117.528 E2.14425
G1 X116.129 Y118.321 E2.19847
G1 X114.362 Y119.077 E2.25121
G1 X112.432 Y119.640 E2.30638
G1 X110.540 Y120.178 E2.36035
G1 X108.536 Y120.513 E2.41610
G1 X106.561 Y120.837 E2.47102
G1 X104.518 Y120.950 E2.52717
G1 X102.495 Y121.057 E2.58276
G1 X100.456 Y120.946 E2.63879
G1 X98.435 Y120.837 E2.69433
G1 X96.439 Y120.504 E2.74986
G1 X94.450 Y120.177 E2.80517
G1 X92.572 Y119.631 E2.85883
G1 X90.631 Y119.077 E2.91422
G1 X88.886 Y118.315 E2.96647
G1 X87.050 Y117.528 E3.02128
G1 X85.433 Y116.519 E3.07359
G1 X83.788 Y115.513 E3.12650
G1 X82.385 Y114.264 E3.17804
G1 X80.935 Y112.998 E3.23086
G1 X79.814 Y111.498 E3.28224
G1 X78.634 Y109.950 E3.33566
G1 X77.905 Y108.252 E3.38636
G1 X77.093 Y106.402 E3.44180
G1 X76.822 Y104.482 E3.49501
G1 X76.541 Y102.510 E3.54967
G1 X76.813 Y100.553 E3.60388
G1 X77.093 Y98.619 E3.65751
G1 X77.872 Y96.798 E3.71185
G1 X78.637 Y95.059 E3.76399
G1 X79.807 Y93.487 E3.81776
G1 X80.940 Y92.007 E3.86890
G1 F2700 E-0.63110
G0 F9000 X86.246 Y96.922
;TYPE:WALL-INNER
G1 F2700 E3.86890
G1 F1200 X87.151 Y96.113 E3.90221
G1 X88.093 Y95.293 E3.93648
G1 X89.230 Y94.581 E3.97329
G1 X90.396 Y93.871 E4.01075
G1 X91.727 Y93.288 E4.05063
G1 X93.075 Y92.713 E4.09084
G1 X94.558 Y92.280 E4.13323
G1 X96.043 Y91.858 E4.17560
G1 X97.643 Y91.590 E4.22011
G1 X99.216 Y91.332 E4.26385
G1 X100.873 Y91.240 E4.30939
G1 X102.499 Y91.154 E4.35407
G1 X105.778 Y91.331 E4.44418
G1 X107.378 Y91.598 E4.48869
G1 X108.956 Y91.857 E4.53257
G1 X110.452 Y92.293 E4.57533
G1 X111.924 Y92.712 E4.61732
G1 X113.275 Y93.302 E4.65778
G1 X114.605 Y93.873 E4.69749
G1 X115.759 Y94.592 E4.73480
G1 X116.904 Y95.292 E4.77163
G1 X117.829 Y96.115 E4.80560
G1 X118.754 Y96.923 E4.83931
G1 X119.422 Y97.816 E4.86991
G1 X120.101 Y98.708 E4.90067
G1 X120.500 Y99.638 E4.92844
G1 X120.916 Y100.586 E4.95684
G1 X121.049 Y101.525 E4.98287
G1 X121.188 Y102.503 E5.00997
G1 X121.059 Y103.433 E5.03574
G1 X120.915 Y104.420 E5.06311
G1 X120.526 Y105.331 E5.09029
G1 X120.100 Y106.296 E5.11923
G1 X119.449 Y107.170 E5.14914
G1 X118.754 Y108.078 E5.18052
G1 X117.849 Y108.887 E5.21382
G1 X116.907 Y109.707 E5.24810
G1 X115.770 Y110.419 E5.28491
G1 X114.604 Y111.129 E5.32237
G1 X113.273 Y111.712 E5.36224
G1 X111.925 Y112.287 E5.40245
G1 X110.442 Y112.720 E5.44485
G1 X108.957 Y113.142 E5.48721
G1 X107.357 Y113.410 E5.53172
G1 X105.784 Y113.668 E5.57547
G1 X104.127 Y113.760 E5.62100
G1 X102.501 Y113.846 E5.66568
G1 X99.222 Y113.669 E5.75579
G1 X97.622 Y113.402 E5.80030
G1 X96.044 Y113.143 E5.84418
G1 X94.548 Y112.707 E5.88694
G1 X93.068 Y112.285 E5.92917
G1 X91.725 Y111.698 E5.96939
G1 X90.394 Y111.127 E6.00913
G1 X89.241 Y110.408 E6.04642
G1 X88.096 Y109.708 E6.08324
G1 X87.171 Y108.885 E6.11722
G1 X86.246 Y108.077 E6.15092
G1 X85.578 Y107.184 E6.18152
G1 X84.899 Y106.292 E6.21228
G1 X84.500 Y105.362 E6.24005
G1 X84.084 Y104.414 E6.26846
G1 X83.951 Y103.475 E6.29448
G1 X83.812 Y102.497 E6.32159
G1 X83.941 Y101.567 E6.34735
G1 X84.085 Y100.580 E6.37472
G1 X84.474 Y99.669 E6.40190
G1 X84.900 Y98.704 E6.43085
G1 X85.551 Y97.830 E6.46075
G1 X86.246 Y96.922 E6.49213
G0 F9000 X85.801 Y96.515
;TYPE:WALL-OUTER
G1 F1200 X86.760 Y95.658 E6.52742
G1 X87.736 Y94.808 E6.56294
G1 X88.918 Y94.068 E6.60120
G1 X90.113 Y93.341 E6.63958
G1 X91.491 Y92.737 E6.68087
G1 X92.870 Y92.148 E6.72202
G1 X94.394 Y91.703 E6.76558
G1 X95.914 Y91.271 E6.80894
G1 X97.544 Y90.998 E6.85429
G1 X99.151 Y90.734 E6.89898
G1 X102.500 Y90.553 E6.99101
G1 X105.847 Y90.734 E7.08299
G1 X109.088 Y91.271 E7.17313
G1 X110.618 Y91.716 E7.21686
G1 X112.127 Y92.146 E7.25991
G1 X113.513 Y92.751 E7.30141
G1 X114.883 Y93.339 E7.34232
G1 X116.074 Y94.081 E7.38082
G1 X117.262 Y94.807 E7.41903
G1 X118.226 Y95.665 E7.45444
G1 X119.196 Y96.512 E7.48978
G1 X119.901 Y97.455 E7.52209
G1 X120.623 Y98.403 E7.55478
G1 X121.051 Y99.399 E7.58453
G1 X121.499 Y100.422 E7.61518
G1 X121.794 Y102.500 E7.67277
G1 X121.652 Y103.519 E7.70100
G1 X121.499 Y104.581 E7.73044
G1 X121.074 Y105.573 E7.76006
G1 X120.622 Y106.599 E7.79082
G1 X119.923 Y107.538 E7.82294
G1 X119.199 Y108.485 E7.85565
G1 X118.240 Y109.342 E7.89094
G1 X117.264 Y110.192 E7.92646
G1 X116.082 Y110.932 E7.96473
G1 X114.887 Y111.659 E8.00311
G1 X113.509 Y112.263 E8.04439
G1 X112.130 Y112.852 E8.08554
G1 X110.606 Y113.297 E8.12911
G1 X109.086 Y113.729 E8.17247
G1 X107.456 Y114.002 E8.21782
G1 X105.849 Y114.266 E8.26250
G1 X102.500 Y114.447 E8.35454
G1 X99.153 Y114.266 E8.44651
G1 X95.912 Y113.729 E8.53666
G1 X94.382 Y113.284 E8.58038
G1 X92.865 Y112.851 E8.62367
G1 X91.487 Y112.249 E8.66493
G1 X90.116 Y111.661 E8.70587
G1 X88.926 Y110.919 E8.74435
G1 X87.738 Y110.193 E8.78255
G1 X86.774 Y109.335 E8.81797
G1 X85.804 Y108.488 E8.85330
G1 X85.099 Y107.545 E8.88561
G1 X84.377 Y106.597 E8.91831
G1 X83.949 Y105.601 E8.94806
G1 X83.501 Y104.578 E8.97870
G1 X83.206 Y102.499 E9.03632
G1 X83.348 Y101.481 E9.06453
G1 X83.501 Y100.419 E9.09397
G1 X83.926 Y99.427 E9.12358
G1 X84.378 Y98.401 E9.15435
G1 X85.077 Y97.462 E9.18647
G1 X85.801 Y96.515 E9.21918
G0 F9000 X86.431 Y97.038
;TYPE:SKIN
G1 F1200 X103.000 Y113.606 E9.86214
G0 F9000 X103.805 Y113.563
G1 F1200 X86.880 Y96.638 E10.51894
G0 F9000 X87.328 Y96.237
G1 F1200 X104.610 Y113.520 E11.18960
G0 F9000 X105.415 Y113.476
G1 F1200 X87.781 Y95.842 E11.87391
G0 F9000 X88.237 Y95.449
G1 F1200 X106.177 Y113.389 E12.57010
G0 F9000 X106.904 Y113.268
G1 F1200 X88.758 Y95.122 E13.27428
G0 F9000 X89.280 Y94.796
G1 F1200 X107.632 Y113.147 E13.98643
G0 F9000 X108.359 Y113.026
G1 F1200 X89.807 Y94.474 E14.70637
G0 F9000 X90.335 Y94.153
G1 F1200 X109.070 Y112.888 E15.43340
G0 F9000 X109.729 Y112.699
G1 F1200 X90.908 Y93.878 E16.16377
G0 F9000 X91.501 Y93.622
G1 F1200 X110.387 Y112.509 E16.89669
G0 F9000 X111.046 Y112.319
G1 F1200 X92.093 Y93.366 E17.63218
G0 F9000 X92.686 Y93.110
G1 F1200 X111.705 Y112.129 E18.37024
G0 F9000 X112.312 Y111.888
G1 F1200 X93.293 Y92.869 E19.10830
G0 F9000 X93.951 Y92.679
G1 F1200 X112.905 Y111.633 E19.84383
G0 F9000 X113.498 Y111.377
G1 F1200 X94.610 Y92.489 E20.57680
G0 F9000 X95.269 Y92.299
G1 F1200 X114.090 Y111.121 E21.30720
G0 F9000 X114.664 Y110.846
G1 F1200 X95.928 Y92.109 E22.03429
G0 F9000 X96.638 Y91.971
G1 F1200 X115.191 Y110.525 E22.75428
G0 F9000 X115.718 Y110.203
G1 F1200 X97.366 Y91.851 E23.46645
G0 F9000 X98.094 Y91.730
G1 F1200 X116.240 Y109.876 E24.17063
G0 F9000 X116.762 Y109.549
G1 F1200 X98.822 Y91.609 E24.86682
G0 F9000 X99.583 Y91.522
G1 F1200 X117.217 Y109.156 E25.55113
G0 F9000 X117.671 Y108.761
G1 F1200 X100.388 Y91.479 E26.22180
G0 F9000 X101.194 Y91.435
G1 F1200 X118.119 Y108.361 E26.87861
G0 F9000 X118.567 Y107.961
G1 F1200 X101.999 Y91.392 E27.52157
G0 F9000 X102.838 Y91.383
G1 F1200 X118.941 Y107.486 E28.14647
G0 F9000 X119.308 Y107.005
G1 F1200 X103.735 Y91.431 E28.75082
G0 F9000 X104.632 Y91.479
G1 F1200 X119.671 Y106.519 E29.33445
G0 F9000 X102.160 Y113.615
G1 F1200 X86.057 Y97.512 E29.95935
G0 F9000 X85.690 Y97.993
G1 F1200 X101.264 Y113.567 E30.56371
G0 F9000 X100.367 Y113.519
G1 F1200 X85.327 Y98.480 E31.14734
G0 F9000 X84.997 Y98.998
G1 F1200 X99.470 Y113.471 E31.70898
G0 F9000 X98.484 Y113.333
G1 F1200 X84.738 Y99.587 E32.24242
G0 F9000 X84.482 Y100.180
G1 F1200 X97.467 Y113.165 E32.74632
G0 F9000 X96.450 Y112.997
G1 F1200 X84.264 Y100.810 E33.21923
G0 F9000 X84.158 Y101.553
G1 F1200 X95.320 Y112.714 E33.65236
G0 F9000 X94.127 Y112.370
G1 F1200 X84.052 Y102.295 E34.04334
G0 F9000 X84.126 Y103.218
G1 F1200 X92.883 Y111.975 E34.38316
G0 F9000 X91.386 Y111.326
G1 F1200 X84.267 Y104.207 E34.65943
G0 F9000 X84.842 Y105.631
G1 F1200 X89.599 Y110.388 E34.84403
G0 F9000 X105.528 Y91.527
G1 F1200 X120.001 Y106.000 E35.40567
G0 F9000 X120.261 Y105.411
G1 F1200 X106.515 Y91.665 E35.93910
G0 F9000 X107.531 Y91.834
G1 F1200 X120.515 Y104.817 E36.44294
G0 F9000 X120.734 Y104.188
G1 F1200 X108.548 Y92.002 E36.91584
G0 F9000 X109.678 Y92.283
G1 F1200 X120.841 Y103.446 E37.34903
G0 F9000 X120.947 Y102.703
G1 F1200 X110.870 Y92.627 E37.74006
G0 F9000 X112.115 Y93.023
G1 F1200 X120.872 Y101.780 E38.07989
G0 F9000 X120.732 Y100.791
G1 F1200 X113.612 Y93.671 E38.35619
G0 F9000 X115.399 Y94.610
G1 F1200 X120.157 Y99.368 E38.54083
;LAYER:1
M106 S127
G0 F9000 X120.740 Y99.065 Z0.400
;TYPE:WALL-INNER
G1 F1620 X121.356 Y100.469 E38.55018
G1 X121.646 Y102.500 E38.56269
G1 X121.567 Y103.068 E38.56619
G1 X121.356 Y104.530 E38.57519
G1 X121.119 Y105.087 E38.57888
G1 X120.496 Y106.505 E38.58833
G1 X120.099 Y107.038 E38.59238
G1 X119.086 Y108.361 E38.60254
G1 X118.536 Y108.853 E38.60704
G1 X117.180 Y110.034 E38.61801
G1 X116.481 Y110.472 E38.62304
G1 X114.818 Y111.487 E38.63492
G1 X114.000 Y111.844 E38.64036
G1 X112.082 Y112.664 E38.65308
G1 X111.166 Y112.932 E38.65890
G1 X109.059 Y113.531 E38.67226
G1 X108.075 Y113.696 E38.67834
G1 X105.828 Y114.065 E38.69223
G1 X104.815 Y114.121 E38.69841
G1 X102.501 Y114.244 E38.71254
G1 X99.175 Y114.065 E38.73285
G1 X98.190 Y113.901 E38.73894
G1 X95.943 Y113.532 E38.75283
G1 X95.026 Y113.265 E38.75865
G1 X92.917 Y112.664 E38.77202
G1 X92.092 Y112.304 E38.77751
G1 X90.182 Y111.486 E38.79018
G1 X89.476 Y111.045 E38.79526
G1 X87.822 Y110.035 E38.80708
G1 X87.258 Y109.533 E38.81168
G1 X85.912 Y108.357 E38.82258
G1 X85.504 Y107.811 E38.82673
G1 X84.503 Y106.501 E38.83679
G1 X84.260 Y105.935 E38.84054
G1 X83.644 Y104.531 E38.84989
G1 X83.354 Y102.498 E38.86242
G1 X83.433 Y101.932 E38.86590
G1 X83.644 Y100.470 E38.87491
G1 X83.881 Y99.913 E38.87860
G1 X84.504 Y98.495 E38.88804
G1 X84.901 Y97.962 E38.89210
G1 X85.914 Y96.639 E38.90226
G1 X86.464 Y96.147 E38.90676
G1 X87.820 Y94.966 E38.91772
G1 X88.519 Y94.528 E38.92275
G1 X90.182 Y93.513 E38.93463
G1 X91.000 Y93.156 E38.94007
G1 X92.918 Y92.336 E38.95279
G1 X93.834 Y92.068 E38.95861
G1 X95.941 Y91.469 E38.97197
G1 X96.925 Y91.304 E38.97805
G1 X99.172 Y90.935 E38.99194
G1 X100.185 Y90.879 E38.99813
G1 X102.499 Y90.756 E39.01226
G1 X105.825 Y90.935 E39.03257
G1 X106.810 Y91.099 E39.03866
G1 X109.056 Y91.468 E39.05254
G1 X109.973 Y91.735 E39.05836
G1 X112.082 Y92.336 E39.07173
G1 X112.908 Y92.696 E39.07723
G1 X114.818 Y93.514 E39.08990
G1 X115.524 Y93.955 E39.09497
G1 X117.178 Y94.965 E39.10679
G1 X117.742 Y95.467 E39.11139
G1 X119.088 Y96.643 E39.12229
G1 X119.496 Y97.189 E39.12645
G1 X120.497 Y98.499 E39.13650
G1 X120.740 Y99.065 E39.14026
G0 F9000 X121.107 Y98.906
;TYPE:WALL-OUTER
G1 F1620 X121.745 Y100.359 E39.14994
G1 X122.050 Y102.500 E39.16312
G1 X121.745 Y104.640 E39.17630
G1 X121.485 Y105.248 E39.18034
G1 X120.843 Y106.709 E39.19007
G1 X120.417 Y107.281 E39.19442
G1 X119.381 Y108.633 E39.20480
G1 X118.799 Y109.154 E39.20957
G1 X117.419 Y110.357 E39.22073
G1 X116.690 Y110.813 E39.22597
G1 X115.001 Y111.844 E39.23804
G1 X114.157 Y112.212 E39.24365
G1 X112.215 Y113.042 E39.25653
G1 X111.279 Y113.316 E39.26248
G1 X109.144 Y113.923 E39.27601
G1 X105.876 Y114.462 E39.29621
G1 X102.500 Y114.644 E39.31683
G1 X99.124 Y114.462 E39.33744
G1 X95.858 Y113.923 E39.35763
G1 X92.780 Y113.041 E39.37715
G1 X91.933 Y112.671 E39.38279
G1 X89.998 Y111.842 E39.39562
G1 X89.266 Y111.386 E39.40088
G1 X87.582 Y110.357 E39.41292
G1 X86.993 Y109.833 E39.41772
G1 X85.615 Y108.628 E39.42889
G1 X85.185 Y108.052 E39.43327
G1 X84.157 Y106.707 E39.44359
G1 X83.893 Y106.094 E39.44766
G1 X83.255 Y104.641 E39.45734
G1 X82.950 Y102.500 E39.47053
G1 X83.255 Y100.360 E39.48371
G1 X83.515 Y99.752 E39.48774
G1 X84.157 Y98.291 E39.49747
G1 X84.583 Y97.719 E39.50182
G1 X85.619 Y96.367 E39.51221
G1 X86.201 Y95.846 E39.51697
G1 X87.581 Y94.643 E39.52813
G1 X88.310 Y94.187 E39.53338
G1 X89.999 Y93.156 E39.54544
G1 X90.843 Y92.788 E39.55106
G1 X92.785 Y91.958 E39.56394
G1 X93.721 Y91.684 E39.56988
G1 X95.856 Y91.077 E39.58342
G1 X99.124 Y90.538 E39.60361
G1 X102.500 Y90.356 E39.62423
G1 X105.876 Y90.538 E39.64485
G1 X109.142 Y91.077 E39.66503
G1 X112.219 Y91.959 E39.68455
G1 X113.067 Y92.329 E39.69019
G1 X115.002 Y93.158 E39.70303
G1 X115.734 Y93.614 E39.70829
G1 X117.418 Y94.643 E39.72032
G1 X118.007 Y95.167 E39.72513
G1 X119.385 Y96.372 E39.73629
G1 X119.815 Y96.948 E39.74067
G1 X120.843 Y98.293 E39.75100
G1 X121.107 Y98.906 E39.75507
G0 F9000 X120.623 Y99.144
;TYPE:SKIN
G1 F1620 X105.849 Y113.919 E39.88248
G0 F9000 X105.247 Y113.955
G1 F1620 X120.452 Y98.750 E40.01360
G0 F9000 X120.241 Y98.396
G1 F1620 X104.650 Y113.987 E40.14805
G0 F9000 X104.052 Y114.019
G1 F1620 X119.997 Y98.074 E40.28555
G0 F9000 X119.752 Y97.753
G1 F1620 X103.454 Y114.051 E40.42610
G0 F9000 X102.857 Y114.083
G1 F1620 X119.508 Y97.431 E40.56970
G0 F9000 X119.264 Y97.109
G1 F1620 X102.283 Y114.090 E40.71613
G0 F9000 X101.747 Y114.061
G1 F1620 X119.020 Y96.788 E40.86509
G0 F9000 X118.728 Y96.515
G1 F1620 X101.210 Y114.032 E41.01615
G0 F9000 X100.672 Y114.004
G1 F1620 X118.427 Y96.249 E41.16927
G0 F9000 X118.126 Y95.985
G1 F1620 X100.136 Y113.975 E41.32441
G0 F9000 X106.527 Y113.807
G1 F1620 X120.796 Y99.538 E41.44746
G0 F9000 X120.968 Y99.931
G1 F1620 X107.205 Y113.694 E41.56614
G0 F9000 X107.882 Y113.583
G1 F1620 X121.140 Y100.325 E41.68047
G0 F9000 X121.257 Y100.774
G1 F1620 X108.559 Y113.471 E41.78997
G0 F9000 X109.273 Y113.323
G1 F1620 X121.328 Y101.269 E41.89393
G0 F9000 X121.398 Y101.763
G1 F1620 X110.066 Y113.096 E41.99165
G0 F9000 X110.859 Y112.869
G1 F1620 X121.469 Y102.258 E42.08315
G0 F9000 X121.455 Y102.838
G1 F1620 X111.652 Y112.641 E42.16769
G0 F9000 X112.550 Y112.309
G1 F1620 X121.361 Y103.498 E42.24367
G0 F9000 X121.266 Y104.158
G1 F1620 X113.541 Y111.884 E42.31030
G0 F9000 X114.533 Y111.457
G1 F1620 X121.003 Y104.987 E42.36609
G0 F9000 X120.567 Y105.989
G1 F1620 X115.885 Y110.671 E42.40647
G0 F9000 X117.960 Y109.161
G1 F1620 X119.387 Y107.734 E42.41877
G0 F9000 X117.825 Y95.721
G1 F1620 X99.599 Y113.946 E42.57594
G0 F9000 X99.074 Y113.906
G1 F1620 X117.523 Y95.456 E42.73504
G0 F9000 X117.222 Y95.192
G1 F1620 X98.588 Y113.826 E42.89574
G0 F9000 X98.103 Y113.745
G1 F1620 X116.893 Y94.955 E43.05777
G0 F9000 X116.543 Y94.740
G1 F1620 X97.617 Y113.666 E43.22098
G0 F9000 X97.131 Y113.586
G1 F1620 X116.193 Y94.524 E43.38537
G0 F9000 X115.842 Y94.309
G1 F1620 X96.645 Y113.506 E43.55092
G0 F9000 X96.160 Y113.426
G1 F1620 X115.492 Y94.093 E43.71763
G0 F9000 X115.142 Y93.878
G1 F1620 X95.703 Y113.317 E43.88527
G0 F9000 X95.263 Y113.191
G1 F1620 X114.791 Y93.663 E44.05367
G0 F9000 X114.402 Y93.487
G1 F1620 X94.823 Y113.065 E44.22251
G0 F9000 X94.383 Y112.939
G1 F1620 X114.006 Y93.316 E44.39173
G0 F9000 X113.610 Y93.147
G1 F1620 X93.944 Y112.813 E44.56132
G0 F9000 X93.504 Y112.687
G1 F1620 X113.215 Y92.976 E44.73130
G0 F9000 X112.820 Y92.806
